;FLAVOR:Marlin
;TIME:13388
;Filament used: 8.15332m
;Layer height: 0.2
;MINX:72.318
;MINY:36.169
;MINZ:0.2
;MAXX:162.681
;MAXY:198.831
;MAXZ:11
;Generated with Cura_SteamEngine 4.13.1
M140 S50
M105
M190 S50
M104 S200
M105
M109 S200
M82 ;absolute extrusion mode
; Ender 3 Custom Start G-code
G92 E0 ; Reset Extruder
G28 ; Home all axes
G1 Z2.0 F3000 ; Move Z Axis up little to prevent scratching of Heat Bed
G1 X0.1 Y20 Z0.3 F5000.0 ; Move to start position
G1 X0.1 Y200.0 Z0.3 F1500.0 E15 ; Draw the first line
G1 X0.4 Y200.0 Z0.3 F5000.0 ; Move to side a little
G1 X0.4 Y20 Z0.3 F1500.0 E30 ; Draw the second line
G92 E0 ; Reset Extruder
G1 Z2.0 F3000 ; Move Z Axis up little to prevent scratching of Heat Bed
G1 X5 Y20 Z0.3 F5000.0 ; Move over to prevent blob squish
G92 E0
G92 E0
G1 F2700 E-5
;LAYER_COUNT:55
;LAYER:0
M107
G0 F6000 X74.852 Y44.601 Z0.2
;TYPE:SKIRT
G1 F2700 E0
G1 F1200 X74.96 Y44.422 E0.00695
G1 X75.094 Y44.206 E0.01541
G1 X75.27 Y43.929 E0.02632
G1 X75.806 Y43.159 E0.05753
G1 X76.406 Y42.438 E0.08873
G1 X76.994 Y41.837 E0.11669
G1 X78.107 Y40.784 E0.16765
G1 X78.225 Y40.67 E0.17311
G1 X78.481 Y40.432 E0.18473
G1 X78.646 Y40.283 E0.19213
G1 X79.008 Y39.97 E0.20805
G1 X79.245 Y39.774 E0.21827
G1 X80.311 Y38.995 E0.26219
G1 X80.895 Y38.62 E0.28527
G1 X81.706 Y38.147 E0.3165
G1 X82.348 Y37.834 E0.34025
G1 X82.509 Y37.762 E0.34612
G1 X82.934 Y37.583 E0.36146
G1 X83.296 Y37.439 E0.37442
G1 X83.753 Y37.269 E0.39063
G1 X84.501 Y37.036 E0.41669
G1 X84.75 Y36.968 E0.42528
G1 X85.066 Y36.886 E0.43613
G1 X85.861 Y36.694 E0.46334
G1 X86.758 Y36.492 E0.49392
G1 X87.935 Y36.295 E0.53361
G1 X88.131 Y36.273 E0.54017
G1 X88.665 Y36.226 E0.558
G1 X89.045 Y36.202 E0.57066
G1 X89.475 Y36.182 E0.58498
G1 X89.769 Y36.175 E0.59476
G1 X90.33 Y36.169 E0.61342
G1 X144.543 Y36.169 E2.41655
G1 X145.405 Y36.18 E2.44523
G1 X145.835 Y36.194 E2.45953
G1 X146.436 Y36.234 E2.47957
G1 X146.891 Y36.277 E2.49477
G1 X148.065 Y36.452 E2.53425
G1 X148.343 Y36.509 E2.54369
G1 X148.702 Y36.589 E2.55592
G1 X149.623 Y36.811 E2.58743
G1 X150.331 Y36.991 E2.61173
G1 X151.557 Y37.38 E2.65451
G1 X151.724 Y37.444 E2.66046
G1 X152.171 Y37.627 E2.67652
G1 X152.56 Y37.796 E2.69063
G1 X153.648 Y38.342 E2.73112
G1 X153.798 Y38.428 E2.73687
G1 X154.233 Y38.691 E2.75377
G1 X154.486 Y38.852 E2.76375
G1 X155.536 Y39.611 E2.80684
G1 X156.086 Y40.06 E2.83045
G1 X156.602 Y40.508 E2.85318
G1 X157.277 Y41.135 E2.88382
G1 X158.04 Y41.866 E2.91897
G1 X158.689 Y42.543 E2.95016
G1 X159.278 Y43.273 E2.98136
G1 X159.726 Y43.928 E3.00775
G1 X159.955 Y44.29 E3.022
G1 X160.122 Y44.563 E3.03264
G1 X160.314 Y44.887 E3.04517
G1 X160.587 Y45.375 E3.06377
G1 X160.79 Y45.761 E3.07827
G1 X161.119 Y46.444 E3.10349
G1 X161.201 Y46.63 E3.11025
G1 X161.363 Y47.016 E3.12417
G1 X161.504 Y47.372 E3.13691
G1 X161.812 Y48.258 E3.16811
G1 X161.971 Y48.847 E3.1884
G1 X162.037 Y49.121 E3.19777
G1 X162.095 Y49.376 E3.20647
G1 X162.353 Y50.571 E3.24713
G1 X162.547 Y51.807 E3.28874
G1 X162.616 Y52.503 E3.31201
G1 X162.66 Y53.124 E3.33271
G1 X162.666 Y53.266 E3.33744
G1 X162.675 Y53.604 E3.34869
G1 X162.681 Y54.173 E3.36761
G1 X162.656 Y104.991 E5.05783
G1 X162.654 Y180.849 E7.58087
G1 X162.644 Y181.555 E7.60436
G1 X162.628 Y182.027 E7.62006
G1 X162.59 Y182.588 E7.63877
G1 X162.548 Y183.038 E7.6538
G1 X162.357 Y184.294 E7.69605
G1 X162.31 Y184.516 E7.7036
G1 X162.214 Y184.933 E7.71783
G1 X162.119 Y185.309 E7.73073
G1 X162.031 Y185.636 E7.74199
G1 X161.881 Y186.161 E7.76016
G1 X161.705 Y186.803 E7.7823
G1 X161.542 Y187.366 E7.80179
G1 X161.183 Y188.407 E7.83842
G1 X160.798 Y189.262 E7.8696
G1 X160.402 Y189.981 E7.8969
G1 X160.267 Y190.206 E7.90563
G1 X160.109 Y190.462 E7.91564
G1 X159.947 Y190.716 E7.92566
G1 X159.291 Y191.637 E7.96327
G1 X159.03 Y191.966 E7.97723
G1 X158.683 Y192.388 E7.99541
G1 X158.125 Y193.068 E8.02466
G1 X157.498 Y193.766 E8.05587
G1 X157.076 Y194.175 E8.07541
G1 X156.953 Y194.288 E8.08097
G1 X156.512 Y194.672 E8.10042
G1 X156.186 Y194.941 E8.11448
G1 X155.438 Y195.507 E8.14568
G1 X154.954 Y195.823 E8.1649
G1 X154.691 Y195.985 E8.17517
G1 X154.445 Y196.132 E8.18471
G1 X153.973 Y196.406 E8.20286
G1 X153.546 Y196.657 E8.21933
G1 X153.122 Y196.896 E8.23552
G1 X152.298 Y197.311 E8.26621
G1 X152.154 Y197.376 E8.27146
G1 X151.713 Y197.563 E8.28739
G1 X151.418 Y197.681 E8.29796
G1 X150.117 Y198.11 E8.34352
G1 X149.429 Y198.29 E8.36718
G1 X148.629 Y198.468 E8.39444
G1 X148.34 Y198.521 E8.40421
G1 X147.95 Y198.585 E8.41735
G1 X147.472 Y198.655 E8.43342
G1 X146.969 Y198.717 E8.45028
G1 X146.698 Y198.744 E8.45934
G1 X146.297 Y198.776 E8.47272
G1 X145.915 Y198.8 E8.48545
G1 X145.582 Y198.816 E8.49653
G1 X145.196 Y198.826 E8.50938
G1 X144.72 Y198.831 E8.52521
G1 X90.302 Y198.831 E10.33516
G1 X89.598 Y198.821 E10.35858
G1 X89.162 Y198.806 E10.37309
G1 X88.958 Y198.795 E10.37988
G1 X88.505 Y198.761 E10.39499
G1 X88.201 Y198.732 E10.40515
G1 X86.907 Y198.53 E10.44871
G1 X85.841 Y198.298 E10.48499
G1 X85.477 Y198.213 E10.49743
G1 X84.68 Y198.011 E10.52477
G1 X83.472 Y197.629 E10.56691
G1 X83.288 Y197.559 E10.57346
G1 X82.834 Y197.375 E10.58975
G1 X82.494 Y197.228 E10.60207
G1 X81.649 Y196.819 E10.6333
G1 X80.892 Y196.372 E10.66254
G1 X79.935 Y195.754 E10.70043
G1 X78.927 Y195.019 E10.74192
G1 X78.388 Y194.577 E10.7651
G1 X77.689 Y193.952 E10.79629
G1 X77.005 Y193.222 E10.82956
G1 X76.674 Y192.831 E10.8466
G1 X75.831 Y191.796 E10.891
G1 X75.194 Y190.93 E10.92676
G1 X75.056 Y190.722 E10.93506
G1 X74.764 Y190.258 E10.95329
G1 X74.568 Y189.928 E10.96606
G1 X73.984 Y188.802 E11.00825
G1 X73.912 Y188.641 E11.01411
G1 X73.729 Y188.206 E11.02981
G1 X73.585 Y187.843 E11.0428
G1 X73.244 Y186.846 E11.07784
G1 X73.189 Y186.656 E11.08442
G1 X73.017 Y185.983 E11.10753
G1 X72.927 Y185.578 E11.12132
G1 X72.871 Y185.312 E11.13037
G1 X72.659 Y184.227 E11.16714
G1 X72.528 Y183.508 E11.19144
G1 X72.469 Y183.153 E11.20341
G1 X72.364 Y182.221 E11.23461
G1 X72.34 Y181.672 E11.25288
G1 X72.32 Y180.637 E11.28731
G1 X72.318 Y180.424 E11.2944
G1 X72.32 Y54.15 E15.49429
G1 X72.33 Y53.444 E15.51777
G1 X72.34 Y53.113 E15.52879
G1 X72.347 Y52.955 E15.53405
G1 X72.384 Y52.415 E15.55205
G1 X72.426 Y51.967 E15.56702
G1 X72.615 Y50.724 E15.60883
G1 X72.742 Y50.125 E15.6292
G1 X72.995 Y48.998 E15.66762
G1 X73.239 Y48.092 E15.69882
G1 X73.419 Y47.569 E15.71722
G1 X73.47 Y47.432 E15.72208
G1 X73.69 Y46.887 E15.74163
G1 X73.869 Y46.475 E15.75657
G1 X74.133 Y45.912 E15.77725
G1 X74.207 Y45.765 E15.78273
G1 X74.424 Y45.356 E15.79813
G1 X74.662 Y44.929 E15.81439
G1 X74.852 Y44.601 E15.82699
G0 F6000 X75.194 Y44.808
G1 F1200 X75.431 Y44.42 E15.84212
G1 X75.607 Y44.143 E15.85303
G1 X76.134 Y43.389 E15.88363
G1 X76.725 Y42.682 E15.91428
G1 X77.269 Y42.128 E15.9401
G1 X78.348 Y41.107 E15.98951
G1 X78.503 Y40.958 E15.99666
G1 X78.749 Y40.729 E16.00784
G1 X78.914 Y40.58 E16.01523
G1 X79.263 Y40.278 E16.03058
G1 X79.5 Y40.082 E16.04081
G1 X80.528 Y39.332 E16.08314
G1 X81.112 Y38.957 E16.10622
G1 X81.907 Y38.493 E16.13683
G1 X82.512 Y38.2 E16.15919
G1 X82.673 Y38.128 E16.16506
G1 X83.082 Y37.955 E16.17983
G1 X83.444 Y37.811 E16.19279
G1 X83.885 Y37.646 E16.20845
G1 X84.606 Y37.421 E16.23357
G1 X84.855 Y37.353 E16.24215
G1 X85.16 Y37.275 E16.25262
G1 X86.127 Y37.043 E16.2857
G1 X86.846 Y36.882 E16.31021
G1 X87.98 Y36.692 E16.34845
G1 X88.176 Y36.67 E16.35501
G1 X88.69 Y36.625 E16.37217
G1 X89.07 Y36.601 E16.38483
G1 X89.49 Y36.582 E16.39882
G1 X89.773 Y36.575 E16.40823
G1 X90.33 Y36.569 E16.42676
G1 X144.543 Y36.569 E18.22989
G1 X145.399 Y36.58 E18.25836
G1 X145.819 Y36.593 E18.27234
G1 X146.398 Y36.632 E18.29164
G1 X146.853 Y36.675 E18.30684
G1 X147.985 Y36.844 E18.34491
G1 X148.263 Y36.901 E18.35435
G1 X148.608 Y36.978 E18.36611
G1 X149.525 Y37.199 E18.39748
G1 X150.233 Y37.379 E18.42178
G1 X151.414 Y37.754 E18.46299
G1 X151.581 Y37.818 E18.46894
G1 X152.012 Y37.994 E18.48442
G1 X152.401 Y38.163 E18.49853
G1 X153.449 Y38.689 E18.53753
G1 X153.599 Y38.775 E18.54328
G1 X154.018 Y39.028 E18.55956
G1 X154.271 Y39.189 E18.56953
G1 X155.283 Y39.921 E18.61107
G1 X155.833 Y40.37 E18.63469
G1 X156.33 Y40.802 E18.65659
G1 X157 Y41.424 E18.687
G1 X157.763 Y42.155 E18.72214
G1 X158.4 Y42.82 E18.75277
G1 X158.976 Y43.538 E18.78339
G1 X159.388 Y44.142 E18.8077
G1 X159.617 Y44.504 E18.82195
G1 X159.778 Y44.767 E18.83221
G1 X159.97 Y45.091 E18.84473
G1 X160.233 Y45.561 E18.86265
G1 X160.436 Y45.947 E18.87715
G1 X160.753 Y46.605 E18.90145
G1 X160.835 Y46.791 E18.90821
G1 X160.991 Y47.164 E18.92165
G1 X161.132 Y47.52 E18.93439
G1 X161.434 Y48.39 E18.96502
G1 X161.582 Y48.941 E18.984
G1 X161.648 Y49.215 E18.99337
G1 X161.704 Y49.46 E19.00173
G1 X161.962 Y50.655 E19.04239
G1 X162.149 Y51.846 E19.08249
G1 X162.218 Y52.542 E19.10575
G1 X162.261 Y53.141 E19.12572
G1 X162.267 Y53.283 E19.13045
G1 X162.275 Y53.609 E19.1413
G1 X162.281 Y54.173 E19.16006
G1 X162.256 Y104.991 E20.85027
G1 X162.254 Y180.843 E23.37312
G1 X162.244 Y181.549 E23.3966
G1 X162.236 Y181.843 E23.40638
G1 X162.229 Y182.01 E23.41194
G1 X162.192 Y182.551 E23.42998
G1 X162.15 Y183.001 E23.44501
G1 X161.966 Y184.211 E23.48572
G1 X161.919 Y184.433 E23.49327
G1 X161.826 Y184.835 E23.50699
G1 X161.731 Y185.211 E23.51989
G1 X161.646 Y185.526 E23.53074
G1 X161.496 Y186.051 E23.5489
G1 X161.321 Y186.692 E23.571
G1 X161.158 Y187.255 E23.5905
G1 X160.812 Y188.259 E23.62582
G1 X160.433 Y189.098 E23.65644
G1 X160.059 Y189.776 E23.68219
G1 X159.924 Y190.001 E23.69092
G1 X159.772 Y190.247 E23.70054
G1 X159.61 Y190.501 E23.71056
G1 X158.977 Y191.389 E23.74683
G1 X158.716 Y191.718 E23.76079
G1 X158.448 Y192.041 E23.77475
G1 X158.269 Y192.264 E23.78426
G1 X157.816 Y192.814 E23.80796
G1 X157.2 Y193.499 E23.8386
G1 X156.805 Y193.881 E23.85688
G1 X156.682 Y193.994 E23.86244
G1 X156.257 Y194.364 E23.88118
G1 X155.931 Y194.633 E23.89524
G1 X155.197 Y195.188 E23.92584
G1 X154.744 Y195.482 E23.9438
G1 X154.481 Y195.644 E23.95408
G1 X154.244 Y195.786 E23.96327
G1 X153.131 Y196.434 E24.0061
G1 X152.928 Y196.547 E24.01383
G1 X152.133 Y196.946 E24.04341
G1 X151.989 Y197.011 E24.04867
G1 X151.565 Y197.192 E24.064
G1 X151.27 Y197.31 E24.07457
G1 X150.016 Y197.723 E24.11848
G1 X149.328 Y197.903 E24.14214
G1 X148.557 Y198.074 E24.1684
G1 X148.268 Y198.127 E24.17817
G1 X147.892 Y198.189 E24.19085
G1 X147.414 Y198.259 E24.20692
G1 X146.929 Y198.319 E24.22317
G1 X146.658 Y198.346 E24.23223
G1 X146.272 Y198.377 E24.24511
G1 X145.89 Y198.401 E24.25784
G1 X145.569 Y198.416 E24.26853
G1 X145.192 Y198.426 E24.28107
G1 X144.72 Y198.431 E24.29677
G1 X90.307 Y198.431 E26.10655
G1 X89.603 Y198.421 E26.12997
G1 X89.183 Y198.407 E26.14395
G1 X88.979 Y198.396 E26.15074
G1 X88.543 Y198.363 E26.16529
G1 X88.239 Y198.334 E26.17544
G1 X86.992 Y198.14 E26.21742
G1 X85.926 Y197.908 E26.2537
G1 X85.576 Y197.825 E26.26567
G1 X84.779 Y197.623 E26.29301
G1 X83.614 Y197.255 E26.33365
G1 X83.43 Y197.185 E26.3402
G1 X82.992 Y197.008 E26.35591
G1 X82.652 Y196.861 E26.36823
G1 X81.824 Y196.459 E26.39884
G1 X81.109 Y196.036 E26.42647
G1 X80.152 Y195.418 E26.46436
G1 X79.181 Y194.709 E26.50435
G1 X78.642 Y194.267 E26.52754
G1 X77.956 Y193.653 E26.55816
G1 X77.309 Y192.962 E26.58964
G1 X76.984 Y192.578 E26.60637
G1 X76.141 Y191.543 E26.65077
G1 X75.527 Y190.709 E26.68522
G1 X75.389 Y190.501 E26.69352
G1 X75.108 Y190.054 E26.71108
G1 X74.912 Y189.724 E26.72385
G1 X74.35 Y188.638 E26.76452
G1 X74.278 Y188.477 E26.77038
G1 X74.101 Y188.059 E26.78548
G1 X73.957 Y187.696 E26.79847
G1 X73.628 Y186.734 E26.83229
G1 X73.573 Y186.544 E26.83886
G1 X73.407 Y185.896 E26.86111
G1 X73.317 Y185.491 E26.87491
G1 X73.264 Y185.235 E26.88361
G1 X73.053 Y184.155 E26.92021
G1 X72.922 Y183.436 E26.94452
G1 X72.864 Y183.091 E26.95615
G1 X72.762 Y182.176 E26.98677
G1 X72.74 Y181.664 E27.00382
G1 X72.72 Y180.629 E27.03825
G1 X72.718 Y180.424 E27.04507
G1 X72.72 Y54.156 E31.24476
G1 X72.73 Y53.45 E31.26824
G1 X72.739 Y53.131 E31.27886
G1 X72.746 Y52.973 E31.28412
G1 X72.782 Y52.453 E31.30145
G1 X72.824 Y52.005 E31.31642
G1 X73.006 Y50.807 E31.35672
G1 X73.132 Y50.212 E31.37695
G1 X73.385 Y49.085 E31.41537
G1 X73.626 Y48.197 E31.44597
G1 X73.794 Y47.709 E31.46314
G1 X73.845 Y47.572 E31.468
G1 X74.057 Y47.046 E31.48686
G1 X74.236 Y46.634 E31.5018
G1 X74.49 Y46.092 E31.52171
G1 X74.564 Y45.945 E31.52718
G1 X74.773 Y45.55 E31.54205
G1 X75.011 Y45.123 E31.55831
G1 X75.194 Y44.808 E31.57042
G0 F6000 X75.537 Y45.015
G1 F1200 X75.769 Y44.635 E31.58523
G1 X75.945 Y44.358 E31.59615
G1 X76.462 Y43.618 E31.62617
G1 X77.043 Y42.926 E31.65622
G1 X77.544 Y42.419 E31.67993
G1 X78.618 Y41.403 E31.7291
G1 X78.78 Y41.247 E31.73658
G1 X79.017 Y41.026 E31.74736
G1 X79.182 Y40.877 E31.75476
G1 X79.518 Y40.587 E31.76952
G1 X79.755 Y40.391 E31.77975
G1 X80.744 Y39.668 E31.82049
G1 X81.328 Y39.293 E31.84358
G1 X82.109 Y38.839 E31.87362
G1 X82.675 Y38.565 E31.89454
G1 X82.836 Y38.493 E31.9004
G1 X83.23 Y38.326 E31.91464
G1 X83.592 Y38.182 E31.9276
G1 X84.018 Y38.024 E31.94271
G1 X84.712 Y37.807 E31.96689
G1 X84.961 Y37.739 E31.97548
G1 X85.253 Y37.664 E31.9855
G1 X86.214 Y37.433 E32.01838
G1 X86.933 Y37.272 E32.04288
G1 X88.024 Y37.09 E32.07967
G1 X88.22 Y37.068 E32.08623
G1 X88.715 Y37.024 E32.10276
G1 X89.095 Y37 E32.11542
G1 X89.505 Y36.981 E32.12908
G1 X89.778 Y36.975 E32.13816
G1 X90.33 Y36.969 E32.15652
G1 X144.543 Y36.969 E33.95965
G1 X145.393 Y36.98 E33.98792
G1 X145.803 Y36.993 E34.00157
G1 X146.361 Y37.03 E34.02017
G1 X146.816 Y37.073 E34.03537
G1 X147.905 Y37.236 E34.07199
G1 X148.183 Y37.293 E34.08143
G1 X148.515 Y37.367 E34.09274
G1 X149.426 Y37.586 E34.12391
G1 X150.134 Y37.766 E34.1482
G1 X151.271 Y38.127 E34.18788
G1 X151.438 Y38.191 E34.19383
G1 X151.852 Y38.361 E34.20872
G1 X152.241 Y38.53 E34.22282
G1 X153.25 Y39.036 E34.26036
G1 X153.4 Y39.122 E34.26612
G1 X153.803 Y39.366 E34.28178
G1 X154.056 Y39.527 E34.29176
G1 X155.03 Y40.231 E34.33173
G1 X155.58 Y40.68 E34.35535
G1 X156.058 Y41.095 E34.3764
G1 X156.595 Y41.592 E34.40074
G1 X157.486 Y42.444 E34.44174
G1 X158.11 Y43.097 E34.47178
G1 X158.674 Y43.802 E34.50181
G1 X159.05 Y44.356 E34.52408
G1 X159.279 Y44.718 E34.53832
G1 X159.434 Y44.971 E34.54819
G1 X159.626 Y45.295 E34.56072
G1 X159.879 Y45.747 E34.57795
G1 X160.082 Y46.133 E34.59245
G1 X160.387 Y46.766 E34.61582
G1 X160.469 Y46.952 E34.62258
G1 X160.619 Y47.311 E34.63552
G1 X160.76 Y47.667 E34.64826
G1 X161.055 Y48.521 E34.67831
G1 X161.193 Y49.034 E34.69598
G1 X161.259 Y49.308 E34.70535
G1 X161.313 Y49.544 E34.71341
G1 X161.571 Y50.739 E34.75407
G1 X161.751 Y51.886 E34.79268
G1 X161.82 Y52.582 E34.81595
G1 X161.861 Y53.157 E34.83512
G1 X161.867 Y53.299 E34.83985
G1 X161.875 Y53.614 E34.85033
G1 X161.881 Y54.173 E34.86892
G1 X161.856 Y104.991 E36.55913
G1 X161.854 Y180.837 E39.08178
G1 X161.844 Y181.543 E39.10527
G1 X161.836 Y181.826 E39.11468
G1 X161.829 Y181.993 E39.12024
G1 X161.794 Y182.514 E39.13761
G1 X161.752 Y182.964 E39.15264
G1 X161.575 Y184.129 E39.19184
G1 X161.528 Y184.351 E39.19938
G1 X161.438 Y184.737 E39.21257
G1 X161.343 Y185.113 E39.22546
G1 X161.262 Y185.416 E39.2359
G1 X161.13 Y185.878 E39.25188
G1 X160.937 Y186.581 E39.27612
G1 X160.774 Y187.144 E39.29562
G1 X160.44 Y188.11 E39.32961
G1 X160.068 Y188.933 E39.35965
G1 X159.716 Y189.57 E39.38386
G1 X159.581 Y189.795 E39.39259
G1 X159.435 Y190.032 E39.40185
G1 X159.273 Y190.286 E39.41187
G1 X158.664 Y191.14 E39.44675
G1 X158.403 Y191.469 E39.46072
G1 X158.138 Y191.789 E39.47454
G1 X157.96 Y192.01 E39.48398
G1 X157.507 Y192.56 E39.50768
G1 X156.903 Y193.231 E39.5377
G1 X156.535 Y193.586 E39.55471
G1 X156.412 Y193.699 E39.56027
G1 X156.003 Y194.055 E39.5783
G1 X155.677 Y194.324 E39.59236
G1 X154.955 Y194.868 E39.62242
G1 X154.534 Y195.142 E39.63913
G1 X154.271 Y195.304 E39.64941
G1 X154.043 Y195.44 E39.65824
G1 X152.936 Y196.084 E39.70083
G1 X152.733 Y196.197 E39.70856
G1 X151.968 Y196.582 E39.73704
G1 X151.824 Y196.647 E39.7423
G1 X151.416 Y196.82 E39.75704
G1 X151.121 Y196.938 E39.76761
G1 X149.915 Y197.336 E39.80985
G1 X149.227 Y197.516 E39.8335
G1 X148.485 Y197.681 E39.85878
G1 X148.196 Y197.734 E39.86855
G1 X147.834 Y197.793 E39.88075
G1 X147.356 Y197.863 E39.89682
G1 X146.889 Y197.921 E39.91247
